X: 119010
Q: "Highland Schottische."
M: C
L: 1/8
K: D
vd>veud>uB (A<F) D>uF | vG>vAuB>uA G>AB>c |\
d>ed>B (A<F) D>F | E>DE>F D2D :|\
ua |\
vf>vdua>ud f>da>d | c>Ae>A c>Ae>A |
f>da>d f>da>f | g>ba>g f<d d>a |\
(3(fed) a>d f>da>d | (3(cBA) e>A c>Ae>A |\


